X: 21761
T: RED LION HORNPIPE
R: hornpipe, reel
B: K\"ohler's Violin Repository, v.2, 1885 p.176 #1
F: http://www.archive.org/details/klersviolinrepos02rugg
Z: 2012 John Chambers <jc:trillian.mit.edu>
M: C|
L: 1/8
K: Bb
u((3FGA) |\
BFdB  fdbf | gecA BAGF | G(EDE) C2(cd) | ecdB  cAFA |
BFdB  fdbf | gecA BAGF | G(EDE) CEB,(d | ce)Ac B2 :||: u(FE) |
DB,FD BFdB | egec BAGF | FAcA   Bdfb   | afg=e f2 ((3fga) |
bfdf  gecg | dBcA BAGF | G(EDE) CEB,(e | ce)Ac B2 :|

%%sep 2 1 500

